client/assets/images/header/logo-header-bar.svg

<svg width="66" height="70" viewBox="0 0 66 70" fill="none" xmlns="http://www.w3.org/2000/svg">
<g id="Group 3644">
<path id="Path 51" fill-rule="evenodd" clip-rule="evenodd" d="M48.3218 14.1549C48.3218 15.4988 48.8512 16.7876 49.7934 17.7379C50.7357 18.6881 52.0138 19.222 53.3464 19.222C54.3402 19.222 55.3116 18.9248 56.1379 18.368C56.9642 17.8113 57.6082 17.0199 57.9885 16.094C58.3688 15.1681 58.4683 14.1493 58.2744 13.1664C58.0806 12.1835 57.602 11.2806 56.8993 10.572C56.1966 9.86336 55.3013 9.38077 54.3266 9.18526C53.352 8.98974 52.3417 9.09009 51.4235 9.4736C50.5054 9.85711 49.7207 10.5066 49.1686 11.3398C48.6165 12.1731 48.3218 13.1528 48.3218 14.1549Z" fill="white"/>
<path id="Path 52" fill-rule="evenodd" clip-rule="evenodd" d="M60.9458 2.85009C60.9458 3.39244 61.1594 3.91257 61.5397 4.29607C61.92 4.67956 62.4358 4.89501 62.9736 4.89501C63.5114 4.89501 64.0272 4.67956 64.4074 4.29607C64.7877 3.91257 65.0014 3.39244 65.0014 2.85009C65.0014 2.30775 64.7877 1.78761 64.4074 1.40412C64.0272 1.02062 63.5114 0.805176 62.9736 0.805176C62.4358 0.805176 61.92 1.02062 61.5397 1.40412C61.1594 1.78761 60.9458 2.30775 60.9458 2.85009Z" fill="white"/>
<path id="Path 75" fill-rule="evenodd" clip-rule="evenodd" d="M53.0899 31.4498C52.6312 33.8394 51.6697 36.1021 50.2704 38.0853C48.8711 40.0685 47.0664 41.7261 44.9781 42.9463C42.8897 44.1666 40.5662 44.9211 38.1641 45.1591C35.7621 45.3971 33.3374 45.113 31.0534 44.3259C31.0351 44.5364 31.0294 44.7478 31.0366 44.9589C31.1351 46.3751 31.3643 47.779 31.7213 49.1523C27.9425 42.2995 25.5971 26.6072 31.702 20.4275C32.6631 19.4711 33.8189 18.7367 35.0892 18.2752C36.3596 17.8137 37.7143 17.6361 39.0594 17.7547C47.3245 18.5596 47.7294 31.5048 39.2784 31.8932C36.3443 32.0278 33.1157 30.233 31.422 25.6821C30.7735 32.3977 35.3046 37.1162 40.382 37.1162C44.8435 37.1162 47.9218 34.5103 49.4338 31.0405C52.9869 22.8803 46.5368 13.2146 38.1087 13.7065C25.3677 14.4499 21.8954 27.2485 22.6616 38.8535C15.9703 26.415 22.2898 10.9254 36.7847 10.9402C38.7027 10.9397 40.6073 11.2629 42.4194 11.8964C41.3471 10.6832 7.08855 -3.11035 0.281635 45.9731C0.227254 46.2838 0.242059 46.6028 0.324981 46.907C0.407902 47.2112 0.556866 47.4931 0.761085 47.7321C0.965303 47.9711 1.21967 48.1614 1.50577 48.2891C1.79187 48.4167 2.10254 48.4787 2.4153 48.4704L4.24139 48.4766C4.24978 48.4767 4.25812 48.478 4.26615 48.4805C5.5808 48.8949 6.08685 49.5301 6.02046 50.9522C5.89053 53.7115 5.93648 55.5867 5.95191 58.3508C5.96483 60.7276 7.3387 61.6936 9.95186 61.7106L16.476 61.8116C18.508 61.9314 18.8393 62.8145 18.8777 64.8413C18.9021 66.1443 18.9104 67.4523 18.8691 68.756C18.8422 69.6025 19.1067 70.005 20.0176 70.0003C26.8295 69.9641 33.5051 69.9529 40.3167 69.9514C41.1748 69.9514 41.5078 69.6185 41.5096 68.7339C41.5114 67.9112 41.505 65.1638 41.5075 64.4425C41.5239 63.4975 41.6291 62.5562 41.8219 61.6313C42.4679 58.7076 45.8014 54.7724 45.9636 54.6073C48.1611 52.3753 49.9474 49.76 51.6497 47.0907C54.6339 42.4048 55.4798 36.9146 55.4181 31.4498H53.0899Z" fill="white"/>
<path id="Ellipse 25" d="M54.7271 7.32116C56.7318 7.32116 58.357 5.68226 58.357 3.66058C58.357 1.6389 56.7318 0 54.7271 0C52.7223 0 51.0972 1.6389 51.0972 3.66058C51.0972 5.68226 52.7223 7.32116 54.7271 7.32116Z" fill="white"/>
<path id="Path 74" fill-rule="evenodd" clip-rule="evenodd" d="M53.0914 31.4497H55.4196C55.4996 30.0204 54.7068 26.2046 55.4835 24.6114C55.4982 24.5936 55.5129 24.5752 55.5269 24.5578L55.5294 24.5549C55.7188 24.3083 55.8363 24.0133 55.8686 23.703C55.901 23.3928 55.847 23.0796 55.7127 22.7986C55.5783 22.5176 55.369 22.2799 55.1082 22.1122C54.8473 21.9445 54.5453 21.8535 54.236 21.8493C53.9267 21.8451 53.6223 21.9279 53.3571 22.0884C53.0919 22.2489 52.8763 22.4808 52.7345 22.7581C52.5927 23.0353 52.5303 23.3469 52.5544 23.6579C52.5784 23.9689 52.6879 24.267 52.8707 24.5187C53.6136 25.6823 53.3853 30.2369 53.0914 31.4497Z" fill="white"/>
</g>
</svg>

<svg xmlns="http://www.w3.org/2000/svg" width="66" height="70" fill="none"><path d="M48.322 14.155a5.09 5.09 0 0 0 1.472 3.583c.942.95 2.22 1.484 3.553 1.484a4.99 4.99 0 0 0 2.791-.854c.826-.557 1.47-1.348 1.851-2.274a5.1 5.1 0 0 0 .286-2.928 5.08 5.08 0 0 0-1.375-2.594 5.01 5.01 0 0 0-2.573-1.387c-.975-.196-1.985-.095-2.903.288a5.03 5.03 0 0 0-2.255 1.866 5.1 5.1 0 0 0-.847 2.815zM60.946 2.85c0 .542.214 1.062.594 1.446a2.02 2.02 0 0 0 2.868 0c.38-.384.594-.904.594-1.446s-.214-1.062-.594-1.446a2.02 2.02 0 0 0-2.868 0c-.38.383-.594.904-.594 1.446zm-7.856 28.6a17.1 17.1 0 0 1-2.819 6.635c-1.399 1.983-3.204 3.641-5.292 4.861a16.79 16.79 0 0 1-6.814 2.213 16.75 16.75 0 0 1-7.111-.833c-.018.211-.024.422-.017.633.099 1.416.328 2.82.685 4.193-3.779-6.853-6.124-22.545-.019-28.725a9.31 9.31 0 0 1 3.387-2.152c1.27-.462 2.625-.639 3.97-.521 8.265.805 8.67 13.75.219 14.139-2.934.135-6.163-1.66-7.856-6.211-.649 6.716 3.883 11.434 8.96 11.434 4.462 0 7.54-2.606 9.052-6.076 3.553-8.16-2.897-17.826-11.325-17.334-12.741.743-16.213 13.542-15.447 25.147-6.691-12.438-.372-27.928 14.123-27.913a17.06 17.06 0 0 1 5.635.956C41.347 10.683 7.089-3.11.282 45.973a2.15 2.15 0 0 0 .043.934 2.14 2.14 0 0 0 .436.825 2.11 2.11 0 0 0 .745.557 2.08 2.08 0 0 0 .91.181l1.826.006c.008 0 .017.001.025.004 1.315.414 1.821 1.05 1.754 2.472-.13 2.759-.084 4.635-.069 7.399.013 2.377 1.387 3.343 4 3.36l6.524.101c2.032.12 2.363 1.003 2.402 3.03.024 1.303.033 2.611-.009 3.915-.027.847.238 1.249 1.149 1.244l20.299-.049c.858 0 1.191-.333 1.193-1.218l-.002-4.291a15.09 15.09 0 0 1 .314-2.811c.646-2.924 3.98-6.859 4.142-7.024 2.197-2.232 3.984-4.847 5.686-7.517 2.984-4.686 3.83-10.176 3.768-15.641H53.09z" fill-rule="evenodd" fill="#fff"/><path d="M54.727 7.321c2.005 0 3.63-1.639 3.63-3.661S56.732 0 54.727 0s-3.63 1.639-3.63 3.661 1.625 3.661 3.63 3.661z" fill="#fff"/><path fill-rule="evenodd" d="M53.091 31.45h2.328c.08-1.429-.713-5.245.064-6.838l.043-.054.003-.003c.189-.247.307-.542.339-.852a1.69 1.69 0 0 0-.156-.904c-.134-.281-.344-.519-.605-.686s-.563-.259-.872-.263-.614.079-.879.239a1.67 1.67 0 0 0-.623.67 1.69 1.69 0 0 0-.18.9c.024.311.133.609.316.861.743 1.164.515 5.718.221 6.931z" fill="#fff"/></svg>
